tools/download-figma-icons/icons/outlined-large/oil-heating.svg

<svg width="64" height="64" viewBox="0 0 64 64" fill="none" xmlns="http://www.w3.org/2000/svg">
<path d="M46.36 49C36.71 49 28.86 41.15 28.86 31.5C28.86 21.85 36.71 14 46.36 14C56.01 14 63.86 21.85 63.86 31.5C63.86 41.15 56.01 49 46.36 49ZM46.36 17C38.36 17 31.86 23.5 31.86 31.5C31.86 39.5 38.36 46 46.36 46C54.36 46 60.86 39.5 60.86 31.5C60.86 23.5 54.36 17 46.36 17Z" fill="black"/>
<path d="M46.36 41.0302C42.59 41.0302 39.52 38.0002 39.52 34.2702C39.52 32.1102 40.45 30.8102 41.43 29.4202C42.36 28.1102 43.52 26.4702 44.48 23.3602C44.73 22.5302 45.49 21.9702 46.37 21.9702C47.25 21.9702 48 22.5302 48.26 23.3602C49.22 26.4702 50.38 28.1102 51.31 29.4202C52.29 30.8002 53.22 32.1102 53.22 34.2702C53.22 38.0002 50.15 41.0302 46.37 41.0302H46.36ZM46.36 26.8902C45.5 28.8602 44.59 30.1402 43.87 31.1602C42.93 32.4802 42.52 33.1202 42.52 34.2702C42.52 36.3402 44.24 38.0302 46.36 38.0302C48.48 38.0302 50.21 36.3402 50.21 34.2702C50.21 33.1202 49.79 32.4802 48.86 31.1602C48.14 30.1502 47.23 28.8602 46.37 26.8902H46.36Z" fill="black"/>
<path d="M45.39 58H7.78003C6.95003 58 6.28003 57.33 6.28003 56.5V34.5C6.28003 33.67 6.95003 33 7.78003 33H30.35C31.18 33 31.85 33.67 31.85 34.5C31.85 35.33 31.18 36 30.35 36H9.28003V55H43.89V48.27C43.89 47.44 44.56 46.77 45.39 46.77C46.22 46.77 46.89 47.44 46.89 48.27V56.5C46.89 57.33 46.22 58 45.39 58Z" fill="black"/>
<path d="M30.64 30H7.78003C6.95003 30 6.28003 29.33 6.28003 28.5V7.5C6.28003 6.67 6.95003 6 7.78003 6H45.39C46.22 6 46.89 6.67 46.89 7.5V14.68C46.89 15.51 46.22 16.18 45.39 16.18C44.56 16.18 43.89 15.51 43.89 14.68V9H9.28003V27H30.64C31.47 27 32.14 27.67 32.14 28.5C32.14 29.33 31.47 30 30.64 30Z" fill="black"/>
<path d="M47.36 64H6.35999C3.87999 64 1.85999 61.98 1.85999 59.5C1.85999 57.02 3.87999 55 6.35999 55H47.36C49.84 55 51.86 57.02 51.86 59.5C51.86 61.98 49.84 64 47.36 64ZM6.35999 58C5.52999 58 4.85999 58.67 4.85999 59.5C4.85999 60.33 5.52999 61 6.35999 61H47.36C48.19 61 48.86 60.33 48.86 59.5C48.86 58.67 48.19 58 47.36 58H6.35999Z" fill="black"/>
<path d="M29 36H6.35999C3.87999 36 1.85999 33.98 1.85999 31.5C1.85999 29.02 3.87999 27 6.35999 27H29.36V30H6.35999C5.52999 30 4.85999 30.67 4.85999 31.5C4.85999 32.33 5.52999 33 6.35999 33H29.01V36H29Z" fill="black"/>
<path d="M47.36 9H6.35999C3.86999 9 1.85999 6.98 1.85999 4.5C1.85999 2.02 3.86999 0 6.35999 0H47.36C49.84 0 51.86 2.02 51.86 4.5C51.86 6.98 49.84 9 47.36 9ZM6.35999 3C5.52999 3 4.85999 3.67 4.85999 4.5C4.85999 5.33 5.52999 6 6.35999 6H47.36C48.19 6 48.86 5.33 48.86 4.5C48.86 3.67 48.19 3 47.36 3H6.35999Z" fill="black"/>
<path d="M14.86 51.3C14.03 51.3 13.36 50.63 13.36 49.8V41.5C13.36 40.67 14.03 40 14.86 40C15.69 40 16.36 40.67 16.36 41.5V49.8C16.36 50.63 15.69 51.3 14.86 51.3Z" fill="black"/>
</svg>

<svg width="64" height="64" viewBox="0 0 64 64" fill="none" xmlns="http://www.w3.org/2000/svg"><path d="M46.36 49c-9.65 0-17.5-7.85-17.5-17.5S36.71 14 46.36 14s17.5 7.85 17.5 17.5S56.01 49 46.36 49Zm0-32c-8 0-14.5 6.5-14.5 14.5S38.36 46 46.36 46s14.5-6.5 14.5-14.5S54.36 17 46.36 17Z" fill="currentColor"/><path d="M46.36 41.03c-3.77 0-6.84-3.03-6.84-6.76 0-2.16.93-3.46 1.91-4.85.93-1.31 2.09-2.95 3.05-6.06.25-.83 1.01-1.39 1.89-1.39.88 0 1.63.56 1.89 1.39.96 3.11 2.12 4.75 3.05 6.06.98 1.38 1.91 2.69 1.91 4.85 0 3.73-3.07 6.76-6.85 6.76h-.01Zm0-14.14c-.86 1.97-1.77 3.25-2.49 4.27-.94 1.32-1.35 1.96-1.35 3.11 0 2.07 1.72 3.76 3.84 3.76s3.85-1.69 3.85-3.76c0-1.15-.42-1.79-1.35-3.11-.72-1.01-1.63-2.3-2.49-4.27h-.01ZM45.39 58H7.78c-.83 0-1.5-.67-1.5-1.5v-22c0-.83.67-1.5 1.5-1.5h22.57c.83 0 1.5.67 1.5 1.5s-.67 1.5-1.5 1.5H9.28v19h34.61v-6.73c0-.83.67-1.5 1.5-1.5s1.5.67 1.5 1.5v8.23c0 .83-.67 1.5-1.5 1.5ZM30.64 30H7.78c-.83 0-1.5-.67-1.5-1.5v-21c0-.83.67-1.5 1.5-1.5h37.61c.83 0 1.5.67 1.5 1.5v7.18c0 .83-.67 1.5-1.5 1.5s-1.5-.67-1.5-1.5V9H9.28v18h21.36c.83 0 1.5.67 1.5 1.5s-.67 1.5-1.5 1.5Z" fill="currentColor"/><path d="M47.36 64h-41c-2.48 0-4.5-2.02-4.5-4.5S3.88 55 6.36 55h41c2.48 0 4.5 2.02 4.5 4.5s-2.02 4.5-4.5 4.5Zm-41-6c-.83 0-1.5.67-1.5 1.5s.67 1.5 1.5 1.5h41c.83 0 1.5-.67 1.5-1.5s-.67-1.5-1.5-1.5h-41ZM29 36H6.36c-2.48 0-4.5-2.02-4.5-4.5S3.88 27 6.36 27h23v3h-23c-.83 0-1.5.67-1.5 1.5s.67 1.5 1.5 1.5h22.65v3H29ZM47.36 9h-41a4.5 4.5 0 0 1 0-9h41c2.48 0 4.5 2.02 4.5 4.5S49.84 9 47.36 9Zm-41-6c-.83 0-1.5.67-1.5 1.5S5.53 6 6.36 6h41c.83 0 1.5-.67 1.5-1.5S48.19 3 47.36 3h-41Zm8.5 48.3c-.83 0-1.5-.67-1.5-1.5v-8.3c0-.83.67-1.5 1.5-1.5s1.5.67 1.5 1.5v8.3c0 .83-.67 1.5-1.5 1.5Z" fill="currentColor"/></svg>
